dist/assets/images/whatsAppIco.svg

<svg width="20" height="20" viewBox="0 0 20 20" fill="none" xmlns="http://www.w3.org/2000/svg">
<g clip-path="url(#clip0_1501_7062)">
<path fill-rule="evenodd" clip-rule="evenodd" d="M9.25289 0.0279429C7.74461 0.174935 6.60726 0.500872 5.37371 1.13951C3.49055 2.1145 1.96992 3.66599 1.02973 5.57173C0.668515 6.30392 0.498281 6.75271 0.309492 7.47075C0.0714841 8.37575 0.00218727 8.92595 3.88292e-05 9.9272C-0.00101586 10.4257 0.019531 10.9667 0.0475388 11.1772C0.260508 12.7777 0.762461 14.157 1.60195 15.4484L1.88176 15.8788L1.26019 17.7137C0.91832 18.7229 0.644023 19.554 0.650625 19.5606C0.657265 19.5672 1.5123 19.3009 2.55074 18.9687C3.58922 18.6365 4.45273 18.3647 4.46973 18.3647C4.48672 18.3647 4.64703 18.4557 4.82598 18.5669C5.00492 18.6782 5.37984 18.8785 5.65914 19.0122C8.18469 20.2209 11.0717 20.3243 13.6577 19.2988C16.5878 18.1368 18.8383 15.5949 19.6416 12.5399C19.8877 11.6042 19.9501 11.0913 19.9501 10.0053C19.9501 8.91938 19.8877 8.40646 19.6416 7.47075C18.6992 3.88689 15.8267 1.10111 12.2021 0.255794C11.5931 0.113763 10.9594 0.0418101 10.1904 0.027396C9.7607 0.0193101 9.33883 0.0195445 9.25289 0.0279429ZM6.87051 4.66322C6.93519 4.69677 7.02582 4.79189 7.07195 4.87454C7.1884 5.08329 8.13805 7.37052 8.1657 7.50888C8.20109 7.68587 8.02801 7.98677 7.63973 8.42333C7.23453 8.87884 7.14746 9.02509 7.18351 9.18935C7.24902 9.48743 8.15242 10.6855 8.70902 11.2124C9.57273 12.03 10.8782 12.8063 11.4599 12.8483C11.759 12.8699 11.8681 12.7852 12.3256 12.1763C12.5331 11.9 12.7545 11.6224 12.8175 11.5594C12.9682 11.4087 13.1918 11.3768 13.4427 11.4701C13.7644 11.5899 15.7313 12.5477 15.8695 12.652L16.0017 12.7517L15.9798 13.1656C15.9238 14.2282 15.5511 14.7799 14.5654 15.2597C13.6282 15.7158 12.8946 15.7033 11.4585 15.2069C9.53168 14.5409 8.50894 13.9048 7.12312 12.5102C6.42969 11.8125 5.93691 11.2225 5.37328 10.4155C4.44453 9.08552 4.08836 8.05857 4.19437 7.01626C4.27937 6.18056 4.57141 5.56364 5.16121 4.97388C5.44652 4.68853 5.81988 4.57107 6.3818 4.58982C6.62019 4.59775 6.79496 4.624 6.87051 4.66322Z" fill="#15112B"/>
</g>
<defs>
<clipPath id="clip0_1501_7062">
<rect width="20" height="20" fill="white"/>
</clipPath>
</defs>
</svg>

<svg width="20" height="20" fill="none" xmlns="http://www.w3.org/2000/svg"><g clip-path="url(#clip0_1501_7062)"><path fill-rule="evenodd" clip-rule="evenodd" d="M9.253.028C7.745.175 6.607.5 5.373 1.14A9.938 9.938 0 001.03 5.572C.669 6.304.498 6.752.31 7.47.07 8.376.001 8.926 0 9.927c-.001.499.02 1.04.048 1.25.213 1.6.714 2.98 1.554 4.271l.28.43-.622 1.836a62.93 62.93 0 00-.61 1.847c.007.006.862-.26 1.9-.592 1.04-.332 1.903-.604 1.92-.604.017 0 .177.09.356.202.179.111.554.311.833.445a9.973 9.973 0 007.999.287 10.074 10.074 0 005.984-6.76c.246-.935.308-1.448.308-2.534 0-1.086-.062-1.599-.308-2.534a10.058 10.058 0 00-7.44-7.215A9.433 9.433 0 0010.19.027c-.43-.007-.85-.007-.937 0zM6.87 4.663a.607.607 0 01.2.212c.117.208 1.067 2.496 1.095 2.634.035.177-.138.478-.526.914-.405.456-.493.602-.456.766.065.298.968 1.496 1.525 2.023.864.818 2.17 1.594 2.75 1.636.3.022.41-.063.867-.672a9.31 9.31 0 01.492-.617c.15-.15.374-.182.625-.089.321.12 2.288 1.078 2.427 1.182l.132.1-.022.414c-.056 1.062-.429 1.614-1.415 2.094-.937.456-1.67.443-3.106-.053-1.927-.666-2.95-1.302-4.336-2.697a14.666 14.666 0 01-1.75-2.095c-.928-1.33-1.285-2.356-1.179-3.399.085-.835.377-1.452.967-2.042.286-.285.659-.403 1.22-.384.24.008.414.034.49.073z" fill="#15112B"/></g><defs><clipPath id="clip0_1501_7062"><path fill="#fff" d="M0 0h20v20H0z"/></clipPath></defs></svg>
